icons/svg/entertainment_colored/park.svg

<?xml version="1.0" encoding="UTF-8" standalone="no"?>
<!-- Created with Inkscape (http://www.inkscape.org/) -->

<svg
   xmlns:dc="http://purl.org/dc/elements/1.1/"
   xmlns:cc="http://creativecommons.org/ns#"
   xmlns:rdf="http://www.w3.org/1999/02/22-rdf-syntax-ns#"
   xmlns:svg="http://www.w3.org/2000/svg"
   xmlns="http://www.w3.org/2000/svg"
   xmlns:sodipodi="http://sodipodi.sourceforge.net/DTD/sodipodi-0.dtd"
   xmlns:inkscape="http://www.inkscape.org/namespaces/inkscape"
   version="1.0"
   width="580"
   height="580"
   id="svg2"
   sodipodi:version="0.32"
   inkscape:version="0.91 r13725"
   sodipodi:docname="park.svg"
   inkscape:output_extension="org.inkscape.output.svg.inkscape">
  <metadata
     id="metadata10">
    <rdf:RDF>
      <cc:Work
         rdf:about="">
        <dc:format>image/svg+xml</dc:format>
        <dc:type
           rdf:resource="http://purl.org/dc/dcmitype/StillImage" />
        <cc:license
           rdf:resource="http://web.resource.org/cc/PublicDomain" />
        <dc:language>en</dc:language>
        <dc:title />
      </cc:Work>
    </rdf:RDF>
  </metadata>
  <sodipodi:namedview
     inkscape:window-height="1006"
     inkscape:window-width="1920"
     inkscape:pageshadow="2"
     inkscape:pageopacity="0.0"
     guidetolerance="10.0"
     gridtolerance="10.0"
     objecttolerance="10.0"
     borderopacity="1.0"
     bordercolor="#666666"
     pagecolor="#ffffff"
     id="base"
     showgrid="false"
     inkscape:zoom="0.70710678"
     inkscape:cx="274.98688"
     inkscape:cy="324.51516"
     inkscape:window-x="1920"
     inkscape:window-y="0"
     inkscape:current-layer="svg2"
     showguides="true"
     inkscape:guide-bbox="true"
     inkscape:window-maximized="1" />
  <defs
     id="defs4">
    <inkscape:perspective
       sodipodi:type="inkscape:persp3d"
       inkscape:vp_x="0 : 290 : 1"
       inkscape:vp_y="0 : 1000 : 0"
       inkscape:vp_z="580 : 290 : 1"
       inkscape:persp3d-origin="290 : 193.33333 : 1"
       id="perspective12" />
    <style
       type="text/css"
       id="style6">
   
    .fil0 {fill:#EF7900}
   
  </style>
    <inkscape:perspective
       id="perspective6807"
       inkscape:persp3d-origin="29.116032 : 19.410688 : 1"
       inkscape:vp_z="58.232063 : 29.116032 : 1"
       inkscape:vp_y="0 : 1000 : 0"
       inkscape:vp_x="0 : 29.116032 : 1"
       sodipodi:type="inkscape:persp3d" />
    <inkscape:perspective
       id="perspective6954"
       inkscape:persp3d-origin="290 : 193.33333 : 1"
       inkscape:vp_z="580 : 290 : 1"
       inkscape:vp_y="0 : 1000 : 0"
       inkscape:vp_x="0 : 290 : 1"
       sodipodi:type="inkscape:persp3d" />
    <inkscape:perspective
       id="perspective2541"
       inkscape:persp3d-origin="240 : 160 : 1"
       inkscape:vp_z="480 : 240 : 1"
       inkscape:vp_y="0 : 1000 : 0"
       inkscape:vp_x="0 : 240 : 1"
       sodipodi:type="inkscape:persp3d" />
    <inkscape:perspective
       id="perspective2750"
       inkscape:persp3d-origin="215 : 143.33333 : 1"
       inkscape:vp_z="430 : 215 : 1"
       inkscape:vp_y="0 : 1000 : 0"
       inkscape:vp_x="0 : 215 : 1"
       sodipodi:type="inkscape:persp3d" />
    <inkscape:perspective
       id="perspective2830"
       inkscape:persp3d-origin="0.5 : 0.33333333 : 1"
       inkscape:vp_z="1 : 0.5 : 1"
       inkscape:vp_y="0 : 1000 : 0"
       inkscape:vp_x="0 : 0.5 : 1"
       sodipodi:type="inkscape:persp3d" />
    <inkscape:perspective
       id="perspective3648"
       inkscape:persp3d-origin="0.5 : 0.33333333 : 1"
       inkscape:vp_z="1 : 0.5 : 1"
       inkscape:vp_y="0 : 1000 : 0"
       inkscape:vp_x="0 : 0.5 : 1"
       sodipodi:type="inkscape:persp3d" />
    <inkscape:perspective
       id="perspective3675"
       inkscape:persp3d-origin="0.5 : 0.33333333 : 1"
       inkscape:vp_z="1 : 0.5 : 1"
       inkscape:vp_y="0 : 1000 : 0"
       inkscape:vp_x="0 : 0.5 : 1"
       sodipodi:type="inkscape:persp3d" />
  </defs>
  <g
     id="g1327">
    <path
       d="M 66.275,1.768 C 24.94,1.768 1.704,23.139 1.704,66.804 L 1.704,516.927 C 1.704,557.771 22.598,579.156 63.896,579.156 L 515.92,579.156 C 557.227,579.156 578.149,558.84 578.149,516.927 L 578.149,66.804 C 578.149,24.203 557.227,1.768 514.627,1.768 C 514.624,1.768 66.133,1.625 66.275,1.768 z"
       style="fill:#111111;stroke:#eeeeee;stroke-width:3.40799999"
       id="path1329" />
  </g>
  <path
     style="fill:#ffffff;fill-opacity:1;stroke:none"
     d="m 140.79649,75.503593 c 0,0 -32.19096,64.347777 -58.529989,100.097177 0,3.57494 10.241695,17.87484 27.801029,14.29989 0,1.78749 1.46463,5.36357 2.92791,7.15105 -14.632805,26.81206 -33.655315,53.6241 -57.067785,84.01112 0,3.57492 10.242883,33.96008 38.045192,28.59767 -8.779682,16.08724 -40.972645,69.713 -62.921839,87.58771 0,3.57494 20.485963,39.32431 49.751536,23.23707 6.880745,22.41377 24.547396,34.93948 43.841436,28.12706 -1.61181,48.29606 -27.257636,38.37612 -24.39112,55.88407 l 70.84661,0 c -11.70624,-16.08725 -14.20546,-5.36262 -15.66875,-51.83688 l 0,-4.6825 c 18.33161,5.80083 36.99436,-8.84054 43.89749,-25.70561 26.33904,12.51229 45.36131,-5.36102 52.67771,-25.02321 -10.24295,-8.93735 -36.58121,-39.32555 -55.60384,-67.92507 0,0 -23.41318,32.17479 -51.2155,5.36273 -17.55936,5.36238 -29.26552,-1.7873 -38.04519,-8.93719 11.70623,7.14989 24.8765,5.36208 32.19289,-5.36272 16.09607,14.29975 33.65454,10.725 43.8975,-8.93718 30.72886,5.36241 39.50981,-26.81233 40.97309,-28.5998 -21.94919,-21.44965 -51.21549,-71.49951 -51.21549,-71.49951 -5.85314,14.29977 -21.94969,12.51308 -27.8028,1.78827 -10.24296,3.57495 -19.02179,9.8e-4 -24.87489,-7.14887 7.31639,5.36242 16.09495,3.57329 20.4848,-3.57658 11.70622,12.51229 30.72893,3.57562 30.72893,-12.51163 16.09609,8.93736 27.80279,-10.72495 27.80279,-14.29989 C 174.45245,139.85137 140.79649,75.503593 140.79649,75.503593 Z"
     id="path3"
     inkscape:connector-curvature="0"
     sodipodi:nodetypes="cccccccccccccccccccccccccccc" />
  <path
     style="fill:none;fill-rule:evenodd;stroke:#ffffff;stroke-width:42.72891998;stroke-linecap:butt;stroke-linejoin:miter;stroke-miterlimit:4;stroke-dasharray:none;stroke-opacity:1"
     d="m 299.68424,405.31599 249.26476,0"
     id="path4160"
     inkscape:connector-curvature="0" />
  <path
     style="color:#000000;clip-rule:nonzero;display:inline;overflow:visible;visibility:visible;opacity:1;isolation:auto;mix-blend-mode:normal;color-interpolation:sRGB;color-interpolation-filters:linearRGB;solid-color:#000000;solid-opacity:1;fill:none;fill-opacity:1;fill-rule:evenodd;stroke:#ffffff;stroke-width:42.72891998;stroke-linecap:butt;stroke-linejoin:miter;stroke-miterlimit:4;stroke-dasharray:none;stroke-dashoffset:0;stroke-opacity:1;color-rendering:auto;image-rendering:auto;shape-rendering:auto;text-rendering:auto;enable-background:accumulate"
     d="m 347.43535,494.54899 0,-91.31734"
     id="path4162"
     inkscape:connector-curvature="0" />
  <path
     style="color:#000000;clip-rule:nonzero;display:inline;overflow:visible;visibility:visible;opacity:1;isolation:auto;mix-blend-mode:normal;color-interpolation:sRGB;color-interpolation-filters:linearRGB;solid-color:#000000;solid-opacity:1;fill:none;fill-opacity:1;fill-rule:evenodd;stroke:#ffffff;stroke-width:42.72891998;stroke-linecap:butt;stroke-linejoin:miter;stroke-miterlimit:4;stroke-dasharray:none;stroke-dashoffset:0;stroke-opacity:1;color-rendering:auto;image-rendering:auto;shape-rendering:auto;text-rendering:auto;enable-background:accumulate"
     d="m 501.25946,494.54899 0,-91.31734"
     id="path4162-5"
     inkscape:connector-curvature="0" />
</svg>

<svg width="580" height="580" viewBox="0 0 580 580" fill="none" xmlns="http://www.w3.org/2000/svg">
<g clip-path="url(#clip0)">
<path d="M66.275 1.768C24.94 1.768 1.70401 23.139 1.70401 66.804V516.927C1.70401 557.771 22.598 579.156 63.896 579.156H515.92C557.227 579.156 578.149 558.84 578.149 516.927V66.804C578.149 24.203 557.227 1.768 514.627 1.768C514.624 1.768 66.133 1.625 66.275 1.768Z" fill="#111111" stroke="#EEEEEE" stroke-width="3.408"/>
<path d="M140.796 75.5036C140.796 75.5036 108.606 139.851 82.2665 175.601C82.2665 179.176 92.5082 193.476 110.068 189.901C110.068 191.688 111.532 195.264 112.995 197.052C98.3626 223.864 79.3401 250.676 55.9276 281.063C55.9276 284.638 66.1705 315.023 93.9728 309.66C85.1931 325.748 53.0002 379.373 31.051 397.248C31.051 400.823 51.537 436.573 80.8025 420.485C87.6833 442.899 105.35 455.425 124.644 448.612C123.032 496.908 97.3863 486.988 100.253 504.496H171.099C159.393 488.409 156.894 499.134 155.431 452.66V447.977C173.762 453.778 192.425 439.136 199.328 422.271C225.667 434.784 244.69 416.91 252.006 397.248C241.763 388.311 215.425 357.923 196.402 329.323C196.402 329.323 172.989 361.498 145.187 334.686C127.627 340.048 115.921 332.899 107.141 325.749C118.848 332.899 132.018 331.111 139.334 320.386C155.43 334.686 172.989 331.111 183.232 311.449C213.961 316.811 222.742 284.636 224.205 282.849C202.256 261.399 172.989 211.349 172.989 211.349C167.136 225.649 151.04 223.863 145.187 213.138C134.944 216.713 126.165 213.139 120.312 205.989C127.628 211.351 136.407 209.562 140.796 202.412C152.503 214.925 171.525 205.988 171.525 189.901C187.621 198.838 199.328 179.176 199.328 175.601C174.452 139.851 140.796 75.5036 140.796 75.5036Z" fill="white"/>
<path d="M299.684 405.316H548.949" stroke="white" stroke-width="42.7289"/>
<path d="M347.435 494.549V403.232" stroke="white" stroke-width="42.7289"/>
<path d="M501.259 494.549V403.232" stroke="white" stroke-width="42.7289"/>
</g>
<defs>
<clipPath id="clip0">
<path d="M0 0H580V580H0V0Z" fill="white"/>
</clipPath>
</defs>
</svg>
